X:37
T:Walters Quickstep
S:American Veteran Fifer #37
T:By his Father Thos. B. Jobe, Ex President N.A. of C.W.M. Bugler Co.M.8th O.V.C.
M:6/8
L:1/8
Q:1/8=300
K:G 
%%MIDI program 72
%%MIDI transpose 8
%%MIDI ratio 3 1
|: GAB- BAB | GBd- def | gfg gfg | dgB A2 B |
GAB- BAB | GBd- def | gfg edB | ABA G3 :|
|: gfg edB | ded def | gfg gfg | eaa a2f |
gfg edB | ded def | gab age | def g3 :|


